!!!CDT:
!!!PTL: L'Armida del Tasso posta in musica a cinque voci, col suo basso per suonare
!!!PPP: Venice
!!!PPR: Alessandro Vincenti
!!!PDT: 1629
!!!PUB-format:
!!!RISM: E 741
!!!AGN: Madrigal
!!!SCT: Tsg16056a
!!!SCA: Tsg16056a
!!!original-voices: 5+bc
!!!extant-voices: 5+bc
!!!complete: Y
!!!final: (G)G
!!!COM: Eredi, Francesco
!!!OTL: Rimanti in pace; i' vado: a te non lice
**kern	**fb	**kern	**text	**kern	**text	**kern	**text	**kern	**text	**kern	**text
*part6	*part6	*part5	*part5	*part4	*part4	*part3	*part3	*part2	*part2	*part1	*part1
*staff6	*staff6	*staff5	*staff5	*staff4	*staff4	*staff3	*staff3	*staff2	*staff2	*staff1	*staff1
*I"Basso continuo	*	*I"Basso	*	*I"Tenore	*	*I"Quinto	*	*I"Alto	*	*I"Canto	*
*I'Bc	*	*I'B	*	*I'T	*	*I'V	*	*I'A	*	*I'C	*
*oclefF4	*	*oclefF4	*	*oclefC4	*	*oclefC4	*	*oclefC3	*	*oclefC1	*
*clefF4	*	*clefF4	*	*clefGv2	*	*clefGv2	*	*clefGv2	*	*clefG2	*
*k[b-]	*	*k[b-]	*	*k[b-]	*	*k[b-]	*	*k[b-]	*	*k[b-]	*
*F:	*	*F:	*	*F:	*	*F:	*	*F:	*	*F:	*
*omet(C)	*	*omet(C)	*	*omet(C)	*	*omet(C)	*	*omet(C)	*	*omet(C)	*
*M4/4	*	*M4/4	*	*M4/4	*	*M4/4	*	*M4/4	*	*M4/4	*
=1	=1	=1	=1	=1	=1	=1	=1	=1	=1	=1	=1
!!LO:TX:a:t=Prima parte
1GG	.	1r	.	1r	.	4r	.	1r	.	1r	.
.	.	.	.	.	.	4G	Ri-	.	.	.	.
.	.	.	.	.	.	16B-yL	-man-	.	.	.	.
.	.	.	.	.	.	16A	.	.	.	.	.
.	.	.	.	.	.	16B-y	.	.	.	.	.
.	.	.	.	.	.	16cJ	.	.	.	.	.
.	.	.	.	.	.	[4d	.	.	.	.	.
=2	=2	=2	=2	=2	=2	=2	=2	=2	=2	=2	=2
2E-X	.	1r	.	1r	.	4d]	.	1r	.	1r	.
.	.	.	.	.	.	4G	-ti in	.	.	.	.
2D	.	.	.	.	.	2A	pa-	.	.	.	.
=3	=3	=3	=3	=3	=3	=3	=3	=3	=3	=3	=3
2D	.	2r	.	2r	.	2A	-ce,	2r	.	2r	.
4r	.	4r	.	4r	.	4r	.	4r	.	4r	.
4D	#	4D	Ri-	4F#X	Ri-	4A	<Ri-	4d	Ri-	4a	Ri-
=4	=4	=4	=4	=4	=4	=4	=4	=4	=4	=4	=4
4D	.	4D	-man-	4A	-man-	4F#X	-man-	4A	-man-	4d	-man-
4GG	6	4GG	-ti in	4G	-ti in	4G	-ti in	4B-y	-ti in	4e	-ti in
2FF	.	2FF	pa-	2C	pa-	2A	pa-	2c	pa-	2f	pa-
=5	=5	=5	=5	=5	=5	=5	=5	=5	=5	=5	=5
2FF	.	2FF	-ce,	2F	-ce,	2A	-ce:>	2c	-ce,	2f	-ce,
2F#X	.	2r	.	2r	.	4r	.	2r	.	2r	.
.	.	.	.	.	.	4A	io	.	.	.	.
=6	=6	=6	=6	=6	=6	=6	=6	=6	=6	=6	=6
2G	.	1r	.	1r	.	4d	va-	1r	.	1r	.
.	.	.	.	.	.	8d	-do,	.	.	.	.
.	.	.	.	.	.	8G	<io	.	.	.	.
4C	.	.	.	.	.	4c	va-	.	.	.	.
4C	.	.	.	.	.	4c	-do>	.	.	.	.
=7	=7	=7	=7	=7	=7	=7	=7	=7	=7	=7	=7
8DL	.	1r	.	1r	.	8r	.	1r	.	1r	.
8EJ	.	.	.	.	.	8G	a	.	.	.	.
8FL	.	.	.	.	.	8A	te	.	.	.	.
8DJ	.	.	.	.	.	8B-y	non	.	.	.	.
8EL	.	.	.	.	.	8c	li-	.	.	.	.
8FJ	.	.	.	.	.	8A	-ce	.	.	.	.
4G	.	.	.	.	.	[4d	Me-	.	.	.	.
=8	=8	=8	=8	=8	=8	=8	=8	=8	=8	=8	=8
4E-X	7	1r	.	1r	.	4d]	.	1r	.	1r	.
4F	.	.	.	.	.	8.c	-co	.	.	.	.
.	.	.	.	.	.	16B-y	ve-	.	.	.	.
8BB-yL	.	.	.	.	.	2B-y	-nir	.	.	.	.
8GGJ	.	.	.	.	.	.	.	.	.	.	.
8AAL	.	.	.	.	.	.	.	.	.	.	.
8BB-yJ	.	.	.	.	.	.	.	.	.	.	.
=9	=9	=9	=9	=9	=9	=9	=9	=9	=9	=9	=9
2C	.	1r	.	1r	.	8r	.	1r	.	1r	.
.	.	.	.	.	.	8G	chi	.	.	.	.
.	.	.	.	.	.	8A	mi	.	.	.	.
.	.	.	.	.	.	8B-y	con-	.	.	.	.
2AA	.	.	.	.	.	[2c	-du-	.	.	.	.
=10	=10	=10	=10	=10	=10	=10	=10	=10	=10	=10	=10
1D	7:6:5	1r	.	1r	.	4c]	.	1r	.	1r	.
.	.	.	.	.	.	4B-y	-ce il	.	.	.	.
.	.	.	.	.	.	2A	vie-	.	.	.	.
=11	=11	=11	=11	=11	=11	=11	=11	=11	=11	=11	=11
2GG	.	2r	.	2r	.	4.G	-ta,	2r	.	2r	.
.	.	.	.	.	.	8d	Ri-	.	.	.	.
4G	#	4r	.	4r	.	4G	-man-	4r	.	4r	.
4G	.	8r	.	8r	.	8G	-ti,	8r	.	8r	.
.	.	8G	Ri-	8G	Ri-	8BnX	<Ri-	8d	Ri-	8g	Ri-
=12	=12	=12	=12	=12	=12	=12	=12	=12	=12	=12	=12
4.C	.	4C	-man-	4G	-man-	4c	-man-	4e	-man-	4g	-man-
.	.	8C	-ti,	8G	-ti,	8c	-ti,>	8e	-ti,	8g	-ti,
8F	.	8F	<Ri-	8F	<Ri-	8c	<Ri-	8f	<Ri-	8a	<Ri-
2BB-y	.	2BB-y	-man-	4F	-man-	4d	-man-	2f	-man-	4b-y	-man-
.	.	.	.	4D	-ti>	4d	-ti>	.	.	8b-y	-ti>
.	.	.	.	.	.	.	.	.	.	8b-y	o
=13	=13	=13	=13	=13	=13	=13	=13	=13	=13	=13	=13
4BB-y	.	4BB-y	-ti>	2d	o	2r	.	2f	-ti>	8b-y	va
.	.	.	.	.	.	.	.	.	.	8b-y	per
4B-y	.	4B-y	o	.	.	.	.	.	.	8a	al-
.	.	.	.	.	.	.	.	.	.	8g	-tra
8B-yL	.	8B-y	va	8d	va	4r	.	4r	.	4.f	via
8B-yJ	.	8B-y	per	8d	per	.	.	.	.	.	.
8AL	.	8A	al-	8c	al-	4A	o	4f	o	.	.
8GJ	.	8G	-tra	8B-y	-tra	.	.	.	.	8g	fe-
=14	=14	=14	=14	=14	=14	=14	=14	=14	=14	=14	=14
2.F	.	2.F	via	2A	via	8d	va	8f	va	2.a	-li-
.	.	.	.	.	.	8d	per	8f	per	.	.
.	.	.	.	.	.	8c	al-	8e-X	al-	.	.
.	.	.	.	.	.	8B-y	-tra	8d	-tra	.	.
.	.	.	.	4r	.	4c	via	4c	via	.	.
4D	6	4D	fe-	4F	fe-	4d	fe-	4B-y	fe-	[4b-y	.
=15	=15	=15	=15	=15	=15	=15	=15	=15	=15	=15	=15
2F	.	2F	-li-	2F	-li-	2c	-li-	2c	-li-	4b-]	.
.	.	.	.	.	.	.	.	.	.	4a	.
2BB-y	.	2BB-y	-ce	2F	-ce	2B-y	-ce	2d	-ce	2b-y	-ce
=16	=16	=16	=16	=16	=16	=16	=16	=16	=16	=16	=16
4BB-y	.	1r	.	1r	.	8r	.	1r	.	1r	.
.	.	.	.	.	.	8f	E	.	.	.	.
2C	-	.	.	.	.	8e-X	co-	.	.	.	.
.	.	.	.	.	.	8d	-me	.	.	.	.
.	.	.	.	.	.	8c	sag-	.	.	.	.
.	.	.	.	.	.	8B-y	-gia i	.	.	.	.
4D	.	.	.	.	.	8A	tuoi	.	.	.	.
.	.	.	.	.	.	8G	con-	.	.	.	.
=17	=17	=17	=17	=17	=17	=17	=17	=17	=17	=17	=17
4C	.	1r	.	1r	.	4c	-si-	1r	.	1r	.
4GG	.	.	.	.	.	4B-y	-gli a-	.	.	.	.
2D	.	.	.	.	.	2A	-que-	.	.	.	.
=18	=18	=18	=18	=18	=18	=18	=18	=18	=18	=18	=18
2GG	.	1r	.	8r	.	2G	-ta,	1r	.	1r	.
.	.	.	.	8d	E	.	.	.	.	.	.
.	.	.	.	8c	co-	.	.	.	.	.	.
.	.	.	.	8B-y	-me	.	.	.	.	.	.
8DL	.	.	.	8A	sag-	8r	.	.	.	.	.
8BB-yJ	.	.	.	8f	-gia,	8d	<E	.	.	.	.
4C	-	.	.	8e-X	<E	8c	co-	.	.	.	.
.	.	.	.	8d	co-	8B-y	-me	.	.	.	.
=19	=19	=19	=19	=19	=19	=19	=19	=19	=19	=19	=19
4C	.	1r	.	8c	-me	8A	sag-	1r	.	1r	.
.	.	.	.	8B-y	sag-	8G	-gia i	.	.	.	.
4D	.	.	.	8A	-gia> i	8F	tuoi	.	.	.	.
.	.	.	.	8A	tuoi	8D	con-	.	.	.	.
2GG	.	.	.	8B-y	con-	4G	-si-	.	.	.	.
.	.	.	.	8G	-si-	.	.	.	.	.	.
.	.	.	.	[4d	-gli a-	4F	-gli a-	.	.	.	.
=20	=20	=20	=20	=20	=20	=20	=20	=20	=20	=20	=20
2AA	#	1r	.	4d]	.	2E	-que-	1r	.	1r	.
.	.	.	.	4c#X	-que-	.	.	.	.	.	.
2D	.	.	.	2d	-ta	2D	-ta>	.	.	.	.
=21	=21	=21	=21	=21	=21	=21	=21	=21	=21	=21	=21
4r	.	4r	.	4r	.	4r	.	4r	.	4rb	.
8DL	#	8D	El-	8d	El-	8A	El-	8d	El-	8f#X	El-
8DJ	.	8D	-la	8A	-la	8d	-la	8d	-la	8f#i	-la
4G	.	4G	men-	4B-y	men-	4B-y	men-	4d	men-	4g	men-
8GL	.	8G	-tre il	8B-y	-tre il	8G	-tre il	8d	-tre il	8g	-tre il
8FJ	.	8F	guer-	8A	guer-	8c	guer-	8f	guer-	8a	guer-
=22	=22	=22	=22	=22	=22	=22	=22	=22	=22	=22	=22
8B-yL	.	8B-y	-rier	8d	-rier	8B-y	-rier	8f	-rier	8b-y	-rier
8B-yJ	.	8B-y	co-	8B-y	co-	8d	co-	8f	co-	8b-y	co-
8E-XL	.	8E-X	-sì	8B-y	-sì	8e-X	-sì	8g	-sì	8b-y	-sì
8E-iJ	.	8E-i	le	8G	le	8d	le	8g	le	8b-y	le
2F	.	2F	di-	2c	di-	2c	di-	2f	di-	2a	di-
=23	=23	=23	=23	=23	=23	=23	=23	=23	=23	=23	=23
1BB-y	.	1BB-y	-ce.	1B-y	-ce.	1d	-ce.	2f	-ce.	1b-y	-ce.
.	.	.	.	.	.	.	.	4r	.	.	.
.	.	.	.	.	.	.	.	4f	Non	.	.
=24	=24	=24	=24	=24	=24	=24	=24	=24	=24	=24	=24
4C	.	1r	.	2r	.	1r	.	4e	tro-	1r	.
4D	.	.	.	.	.	.	.	4f	-va	.	.
2GG	.	.	.	4r	.	.	.	4g	lo-	.	.
.	.	.	.	4B-y	Non	.	.	4d	-co	.	.
=25	=25	=25	=25	=25	=25	=25	=25	=25	=25	=25	=25
2D	.	1r	.	4A	tro-	1r	.	8f	tor-	1r	.
.	.	.	.	.	.	.	.	8f	-bi-	.	.
.	.	.	.	4B-y	-va	.	.	8e	-da	.	.
.	.	.	.	.	.	.	.	8d	e in-	.	.
2C	.	.	.	4c	lo-	.	.	2e	-quie-	.	.
.	.	.	.	4G	-co	.	.	.	.	.	.
=26	=26	=26	=26	=26	=26	=26	=26	=26	=26	=26	=26
2G	.	2r	.	8B-y	tor-	1r	.	2d	-ta,	4r	.
.	.	.	.	8B-y	-bi-	.	.	.	.	.	.
.	.	.	.	8A	-da	.	.	.	.	4b-y	Non
.	.	.	.	8G	e in-	.	.	.	.	.	.
2F	.	2F	Non	2A	-quie-	.	.	8f	<tor-	4a	tro-
.	.	.	.	.	.	.	.	8f	-bi-	.	.
.	.	.	.	.	.	.	.	8e	-da	4b-y	-va
.	.	.	.	.	.	.	.	8d	e in-	.	.
=27	=27	=27	=27	=27	=27	=27	=27	=27	=27	=27	=27
4E	.	4E	tro-	2G	-ta,	1r	.	2e	-quie-	4cc	lo-
4F	.	4F	-va	.	.	.	.	.	.	4cc	-co
4G	.	4G	lo-	4r	.	.	.	2d	-ta,>	8b-y	tor-
.	.	.	.	.	.	.	.	.	.	8b-y	-bi-
4D	.	4D	-co	4B-y	<Non	.	.	.	.	8a	-da
.	.	.	.	.	.	.	.	.	.	8g	e in-
=28	=28	=28	=28	=28	=28	=28	=28	=28	=28	=28	=28
4F	.	8F	tor-	4.A	tro-	4r	.	1r	.	4a	-quie-
.	.	8F	-bi-	.	.	.	.	.	.	.	.
8EL	.	8E	-da	.	.	4A	Non	.	.	4f	-ta,
8DJ	.	8D	e in-	8B-y	-va	.	.	.	.	.	.
2E	.	2E	-quie-	4c	lo-	4G	tro-	.	.	2r	.
.	.	.	.	4c	-co	4A	-va	.	.	.	.
=29	=29	=29	=29	=29	=29	=29	=29	=29	=29	=29	=29
2D	6	2D	-ta,	8F	tor-	4B-y	lo-	4r	.	1r	.
.	.	.	.	8F	-bi-	.	.	.	.	.	.
.	.	.	.	8F	-da	4A	-co	4f	<Non	.	.
.	.	.	.	8G	e in-	.	.	.	.	.	.
2A	.	2r	.	2A	-quie-	8c	tor-	4e	tro-	.	.
.	.	.	.	.	.	8c	-bi-	.	.	.	.
.	.	.	.	.	.	8B-y	-da	4f	-va	.	.
.	.	.	.	.	.	8A	e in-	.	.	.	.
=30	=30	=30	=30	=30	=30	=30	=30	=30	=30	=30	=30
2G	.	2r	.	2G	-ta>	4B-y	-qui-	4g	lo-	4r	.
.	.	.	.	.	.	4G	-e-	4g	-co	4b-y	<Non
2F	.	2F	<Non	2r	.	2c	-ta,	8f	tor-	4a	tro-
.	.	.	.	.	.	.	.	8f	-bi-	.	.
.	.	.	.	.	.	.	.	8e	-da	4b-y	-va
.	.	.	.	.	.	.	.	8d	e in-	.	.
=31	=31	=31	=31	=31	=31	=31	=31	=31	=31	=31	=31
4.EnXi	.	4.E	tro-	1r	.	2r	.	2enXi	-quie-	4cc	lo-
.	.	.	.	.	.	.	.	.	.	4g	-co
8F	.	8F	-va	.	.	.	.	.	.	.	.
4G	.	4G	lo-	.	.	4r	.	2d	-ta>	8b-y	tor-
.	.	.	.	.	.	.	.	.	.	8b-y	-bi-
4D	6	4D	-co	.	.	4B-y	<Non	.	.	8a	-da
.	.	.	.	.	.	.	.	.	.	8g	e in-
=32	=32	=32	=32	=32	=32	=32	=32	=32	=32	=32	=32
4F	.	8F	tor-	1r	.	4A	tro-	1r	.	2a	-quie-
.	.	8F	-bi-	.	.	.	.	.	.	.	.
8EL	.	8E	-da	.	.	4B-y	-va	.	.	.	.
8DJ	.	8D	e in-	.	.	.	.	.	.	.	.
2E	.	2E	-quie-	.	.	4c	lo-	.	.	2g	-ta>
.	.	.	.	.	.	4G	-co	.	.	.	.
=33	=33	=33	=33	=33	=33	=33	=33	=33	=33	=33	=33
2D	6	2D	-ta,>	1r	.	8B-y	tor-	1r	.	1r	.
.	.	.	.	.	.	8B-y	-bi-	.	.	.	.
.	.	.	.	.	.	8A	-da	.	.	.	.
.	.	.	.	.	.	8G	e in-	.	.	.	.
4F	.	8F	tor-	.	.	4A	-qui-	.	.	.	.
.	.	8F	-bi-	.	.	.	.	.	.	.	.
8EL	.	8E	-da	.	.	[4d	-e-	.	.	.	.
8DJ	.	8D	e in-	.	.	.	.	.	.	.	.
=34	=34	=34	=34	=34	=34	=34	=34	=34	=34	=34	=34
2E	7:6	2E	-quie-	1r	.	4d]	.	1r	.	1r	.
.	.	.	.	.	.	4c#X	.	.	.	.	.
2D	.	2D	-ta	.	.	2d	-ta>	.	.	.	.
=35	=35	=35	=35	=35	=35	=35	=35	=35	=35	=35	=35
8r	.	8r	.	8r	.	8r	.	8r	.	8r	.
8BB-y	.	8BB-y	Già	8B-y	Già	8d	Già	8f	Già	8b-y	Già
8BB-yL	.	8BB-y	buo-	8B-y	buo-	8d	buo-	8f	buo-	8b-y	buo-
8BB-yJ	.	8BB-y	-na	8B-y	-na	8d	-na	8f	-na	8b-y	-na
8B-yL	.	8B-y	pez-	8B-y	pez-	8d	pez-	8f	pez-	8b-y	pez-
8B-yJ	.	8B-y	-za in	8d	-za in	8d	-za in	8f	-za in	8b-y	-za in
8B-yL	6	8B-y	di-	8G	di-	8d	di-	8g	di-	8b-y	di-
8AJ	.	8A	-spet-	8A	-spet-	8c	-spet-	8f	-spet-	8cc	-spet-
=36	=36	=36	=36	=36	=36	=36	=36	=36	=36	=36	=36
4G	.	4G	-to-	4B-y	-to-	4d	-to-	4f	-to-	4b-y	-to-
4G	.	4G	-sa	4B-y	-sa	4B-y	-sa	4e	-sa	4g	-sa
4F	.	4F	fron-	4A	fron-	4c	fron-	4f	fron-	4a	fron-
4F	.	4F	-te	4A	-te	4c	-te	4f	-te	4a	-te
=37	=37	=37	=37	=37	=37	=37	=37	=37	=37	=37	=37
2F	.	1r	.	2r	.	1r	.	4r	.	4cc	Tor-
.	.	.	.	.	.	.	.	4f	Tor-	8a	-va
.	.	.	.	.	.	.	.	.	.	8a	ri-
4G	.	.	.	4r	.	.	.	8d	-va	8b-y	-guar-
.	.	.	.	.	.	.	.	8d	ri-	8a	-da al
4C	.	.	.	4c	Tor-	.	.	8e-i	-guar-	8g	fin
.	.	.	.	.	.	.	.	8d	-da al	8g	pro-
=38	=38	=38	=38	=38	=38	=38	=38	=38	=38	=38	=38
4F	.	1r	.	8A	-va	1r	.	8c	fin	8a	-rom-
.	.	.	.	8A	ri-	.	.	8c	pro-	8g	-pe a
4D	6	.	.	8B-y	-guar-	.	.	[4d	-rom-	4f	l’on-
.	.	.	.	8A	-da al	.	.	.	.	.	.
4G	.	.	.	8G	fin	.	.	8d]	.	4b-y	-te,
.	.	.	.	8G	pro-	.	.	8d	-pe a	.	.
4c	.	.	.	4c	-rom-	.	.	4e	l’on-	4g	<Tor-
=39	=39	=39	=39	=39	=39	=39	=39	=39	=39	=39	=39
4A	.	1r	.	4A	-pe,	1r	.	4e	-te,	8cc	-va
.	.	.	.	.	.	.	.	.	.	8b-y	ri-
4A	6	.	.	4A	al	.	.	4f	<al	8a	-guar-
.	.	.	.	.	.	.	.	.	.	8g	-da al
4B-y	.	.	.	8B-y	fin	.	.	8d	fin	8f	fin,>
.	.	.	.	8A	pro-	.	.	8c	pro-	8f	al
4G	.	.	.	8G	-rom-	.	.	8d	-rom-	[4g	fin
.	.	.	.	8G	-pe a	.	.	8e	-pe a	.	.
=40	=40	=40	=40	=40	=40	=40	=40	=40	=40	=40	=40
1A	#	1r	.	1A	l’on-	2r	.	4c#X	l’on-	8g]	.
.	.	.	.	.	.	.	.	.	.	8f	pro-
.	.	.	.	.	.	.	.	2d	.	8e	-rom-
.	.	.	.	.	.	.	.	.	.	8d	-pe a
.	.	.	.	.	.	4r	.	.	.	2e	l’on-
.	.	.	.	.	.	4A	Tor-	4c#X	.	.	.
=41	=41	=41	=41	=41	=41	=41	=41	=41	=41	=41	=41
4D	#	4D	Tor-	2D	-te,	8F#X	-va	4d	-te,>	2d	-te,
.	.	.	.	.	.	8F#i	ri-	.	.	.	.
4BBnX	.	8BBnX	-va	.	.	8G	-guar-	4d	<Tor-	.	.
.	.	8BBnXi	ri-	.	.	8FnXi	-da al	.	.	.	.
4C	.	8C	-guar-	2r	.	8E	fin	8enXi	-va	4r	.
.	.	8BBnXi	-da al	.	.	8E	pro-	8d	ri-	.	.
4AA	6	8AA	fin	.	.	8FnXi	-rom-	8c	-guar-	4a	Tor-
.	.	8AA	pro-	.	.	8E	-pe a	8c	-da al	.	.
=42	=42	=42	=42	=42	=42	=42	=42	=42	=42	=42	=42
4BB-i	.	8BB-i	-rom-	1r	.	4D	l’on-	8d	fin	8f	-va
.	.	8AA	-pe a	.	.	.	.	8c	pro-	8f	ri-
4GG	.	4GG	l’on-	.	.	2G	.	8B-y	-rom-	8g	-guar-
.	.	.	.	.	.	.	.	8G	-pe a	8b-y	-da al
2D	#	2D	-te,	.	.	.	.	4A	l’on-	8a	fin
.	.	.	.	.	.	.	.	.	.	8g	pro-
.	.	.	.	.	.	4F#X	.	[4d	-te,>	8a	-rom-
.	.	.	.	.	.	.	.	.	.	8a	-pe a
=43	=43	=43	=43	=43	=43	=43	=43	=43	=43	=43	=43
2GG	.	2r	.	4r	.	1G	-te,	4d]	.	8b-yL	l’on-
.	.	.	.	.	.	.	.	.	.	8gJ	.
.	.	.	.	4d	<Tor-	.	.	4g	<Tor-	4dd	.
4G	#	4G	<Tor-	8BnX	-va	.	.	8d	-va	4dd	-te,
.	.	.	.	8BnXi	ri-	.	.	8d	ri-	.	.
4EnXi	.	8EnXi	-va	8c	-guar-	.	.	8enXi	-guar-	4cc	<Tor-
.	.	8EnXi	ri-	8G	-da al	.	.	8d	-da al	.	.
=44	=44	=44	=44	=44	=44	=44	=44	=44	=44	=44	=44
4F	.	8F	-guar-	8A	fin	4r	.	8c	fin	8a	-va
.	.	8EnXi	-da al	8G	pro-	.	.	8c	pro-	8a	ri-
4D	6	8D	fin	8F	-rom-	4d	<Tor-	4f	-rom-	8b-y	-guar-
.	.	8D	pro-	8F	-pe a	.	.	.	.	8a	-da al
4E-X	.	4E-X	-rom-	4G	l’on-	8B-y	-va	2e-X	-pe a	4g	fin
.	.	.	.	.	.	8B-y	ri-	.	.	.	.
4C	.	4C	-pe a	8G	-te,>	8c	-guar-	.	.	4g	pro-
.	.	.	.	8G	pro-	8B-y	-da al	.	.	.	.
=45	=45	=45	=45	=45	=45	=45	=45	=45	=45	=45	=45
1D	#	1D	l’on-	8F#X	-rom-	8A	fin	1d	l’on-	4.dd	-rom-
.	.	.	.	8D	-pe a	8F#i	pro-	.	.	.	.
.	.	.	.	2G	l’on-	8.B-i	-rom-	.	.	.	.
.	.	.	.	.	.	.	.	.	.	8g	-pe a
.	.	.	.	.	.	16c	-pe a	.	.	.	.
.	.	.	.	.	.	2A	l’on-	.	.	2a	l’on-
.	.	.	.	4F#X	.	.	.	.	.	.	.
=46	=46	=46	=46	=46	=46	=46	=46	=46	=46	=46	=46
1GGl	.	1GGl	-te>.	1Gl	-te.	1Gl	-te>.	1dl	-te>.	1bnXl	-te>.
==	==	==	==	==	==	==	==	==	==	==	==
*-	*-	*-	*-	*-	*-	*-	*-	*-	*-	*-	*-
!!!system-decoration: [(s1)(s2)(s3)(s4)(s5)]s6
!!!RDF**kern: i = editorial accidental
!!!RDF**kern: l = terminal long
!!!ENC: Emiliano Ricciardi
!!!END: 2019
!!!EED: Mazzetti, Marcello; Ticli, Livio
!!!EEV: 2019/06/12
!!!YEC: Copyright 2018 Emiliano Ricciardi, All Rights Reserved
!!!ONB: Translated from MusicXML on 2019/06/12
!!@@BEGIN:	VERSEDATA
!!@CATALOGNUM:	Tsg16056
!!@LAST_MODIFIED: 2020/07/12
!!@TITLE:		Rimanti in pace; i' vado: a te non lice
!!@CANTO:		XVI
!!@OTTAVA:	56
!!@MANUSRC:	G-Al, G-Au, G-Br<sub>1</sub>, G-Br<sub>2</sub>, G-Cv, G-Es<sub>1</sub>, G-Es<sub>2</sub>, G-Es<sub>3</sub>, G-F, G-Fr, G-Fr<sub>1</sub>, G-Fr<sub>2</sub>, G-Mc<sub>1</sub>, G-Mg, G-Mr, G-Mt, G-N, G-Ol
!!@PRINTSRC:	G-1580CM, G-1581B, G-1581CV, G-1581R, G-1581MR, G-1581P, G-1581V, G-1581V<sub>bis</sub>, G-1582C, G-1582M, G-1582MC, G-1582P, G-1582SC, G-1582SC<sub>bis</sub>, G-1583S, G-1584O, G-1584S, G-1585C, G-1585S, G-1588S, G-1589S, G-1590B, G-1590S, G-1592S, G-1593S, G-1594C, G-1595C, G-1597C, G-1598C, G-1599C, G-1600C, G-1600S, G-1601C, G-1601R, G-1602C, G-1604C, G-1604Cl, G-1604F, G-1604P, G-1606B, G-1606B<sub>bis</sub>, G-1606L, G-1607ZR, G-1608DP, G-1609GC, G-1610M, G-1611S, G-1611V, G-1612P, G-1613M, G-1613P, G-1613V, G-1615P, G-1616M, G-1617P, G-1619B, G-1619V, G-1620M, G-1620S, G-1621R, G-1624I, G-1624MT, G-1625C, G-1625S, G-1625SS, G-1626C, G-1626Co, G-1627M, G-1628T, G-1628Tu, G-1630L, G-1630T, G-1632FT, G-1639CF, G-1642M, G-1643I, G-1644P, G-1644S
!!@@BEGIN:	VERSES
!!@ABOUTIT:
!!@ABOUTEN:
!!@EDITOR:	Angelo Solerti
!!@EDITION_TITLE: Gerusalemme liberata. Poema eroico di Torquato Tasso. Edizione critica sui manoscritti e le prime stampe.
!!@EDITION_LOC:	Florence
!!@EDITION_PUB:	G. Barbera
!!@EDITION_DATE:  1895
!!@EDITION_VOL:
!!@EDITION_PAGE:
!!@TRANSLATOR:	Emiliano Ricciardi and Amyrose McCue Gill
!!@VERSE:
!!	Rimanti in pace; i’ vado: a te non lice
!!	Meco venir; chi mi conduce il vieta.
!!	Rimanti, o va per altra via felice,
!!	E come saggia i tuoi consigli acqueta.
!!	Ella, mentre il guerrier così le dice,
!!	Non trova loco torbida inquieta:
!!	Già buona pezza in dispettosa fronte
!!	Torva il riguarda, alfin prorompe all’onte.
!!@TVERSE:
!!	Remain in peace; I go: to you it is not permitted
!!	To come with me; you who leads me forbids it.
!!	Stay, or go by another happy way,
!!	And like a wise woman accept your counsels.
!!	She, while the warrior thus speaks to her,
!!	Finds [herself in] no place agitated, troubled:
!!	Indeed for some time with spiteful brow
!!	Scowling she regards him; finally bursts forth with shame:
!!@@END:		VERSES
!!@OTHER_CRIT_ED:  Torquato Tasso, <i>Gerusalemme liberata</i>, ed. Lanfranco Caretti, 2 vols. (Bari: Laterza, 1967).
!!@ATTRIBUTION_ABOUT:
!!@DATING:	mid-1560s through 1570s
!!@DEDICATEE:	Duke Alfonso II d'Este
!!@COMMENTARY:
!!@@END:		VERSEDATA
!!@@BEGIN: SETTING
!!@CATALOGNUM:	Tsg16056a
!!@CANTO:		XVI
!!@OTTAVA:	56
!!@TITLE:	Rimanti in pace; i' vado: a te non lice
!!@SETTINGTITLE: Rimanti in pace, io vado: a te non lice
!!@COMPOSER:	Eredi, Francesco
!!@PARTS:		1 of 9
!!@PRINCEPSTITLE:	L'Armida del Tasso posta in musica a cinque voci, col suo basso per suonare
!!@PRINCEPSLOC:	Venice
!!@NORMLOC:	Venice
!!@NORMPUB:	Alessandro Vincenti
!!@NORMPUBSHORT:	A. Vincenti
!!@PRINCEPSPUB:	Alessandro Vincenti
!!@PRINCEPSYEAR:	1629
!!@PRINCEPSRISM:	E 741
!!@OVOICES:	5+bc
!!@EXTANTVOICES:	5+bc
!!@OMENSURATION:	C
!!@OCLEFS:	C1,C3,C4,C4,F4, F4
!!@OTIME:		
!!@OKEYSIG:	b-
!!@FINAL:		(G)G
!!@TIMPEDITOR:	Mazzetti, Marcello; Ticli, Livio
!!@REPRINTS:	
!!@@END: SETTING
